!!!OTL: SCHON HABEN VIEL DICHTER
!!!ARE: Europa, Mitteleuropa, Deutschland
!!!SCT: B0666
!!!YEM: Copyright 1995, estate of Helmut Schaffrath.
**kern
*ICvox
*Ivox
*M3/4
*k[]
*C:
{4G
=1
4.c
8B
4c
=2
4A
4A
4A
=3
4.B
8A
4B
=4
8d
8c
4c}
{4G
=5
4.c
8B
4c
=6
4A
4f
4d
=7
4.B
8A
4B
=8
8d
8c
4c}
{4e
=9
4.e
8d
4c
=10
4.d
8c
4B
=11
8d
8c
8B
8A
8G
8F#
=12
4G
4r}
{8c
8B
=13
4A
4A
8d
8c
=14
4B
4d
4f
=15
8.e
16d
4c
4B
=16
4c
4r}
==
!!!AGN: Moral - Lied, Lebenslauf
!!!ONB: ESAC (Essen Associative Code) Database: BOEHME
!!!AMT: simple triple
!!!AIN: vox
!!!EED: Helmut Schaffrath
!!!EEV: 1.0
*-
